; HEADER_BLOCK_START
; generated by OrcaSlicer 1.8.0 on 2023-12-01 at 17:13:37
; total layer number: 160
; HEADER_BLOCK_END

; THUMBNAIL_BLOCK_START

;
; THUMBNAIL_BLOCK_END

; external perimeters extrusion width = 0.40mm
; perimeters extrusion width = 0.45mm
; infill extrusion width = 0.45mm
; solid infill extrusion width = 0.50mm
; top infill extrusion width = 0.40mm
; first layer extrusion width = 0.50mm

; EXECUTABLE_BLOCK_START
M73 P0 R96
M201 X1000 Y1000 Z1000 E5000
M203 X200 Y200 Z12 E120
M204 P1250 R1250 T1250
M205 X8.00 Y8.00 Z0.40 E1.50 ; sets the jerk limits, mm/sec
;TYPE:Custom
; Initial setups
G90 ; use absolute coordinates
M83 ; extruder relative mode
M220 S100 ; reset speed factor to 100%
M221 S100 ; reset extrusion rate to 100%

; Set the heating
M190 S60 ; wait for bed to heat up
M104 S205 ; start nozzle heating but don't wait

; Home
G1 Z3 F3000 ; move z up little to prevent scratching of surface
G28 ; home all axes
G1 X3 Y3 F5000 ; move to corner of the bed to avoid ooze over centre

; Wait for final heating
M109 S205 ; wait for the nozzle to heat up
M190 S60 ; wait for the bed to heat up

; Return to prime position, Prime line routine
G92 E0 ; Reset Extruder
 M420 S1 ;use saved mesh
G1 Z3 F3000 ; move z up little to prevent scratching of surface
G1 X10 Y.5 Z0.25 F5000.0 ; Move to start position
G1 X100 Y.5 Z0.25 F1500.0 E15 ; Draw the first line
G1 X100 Y.2 Z0.25 F5000.0 ; Move to side a little
G1 X10 Y.2 Z0.25 F1500.0 E30 ; Draw the second line
G92 E0 ; Reset Extruder
M221 S95
G90
G21
M83 ; use relative distances for extrusion
; filament start gcode
M106 S0
;LAYER_CHANGE
;Z:0.25
;HEIGHT:0.25
;BEFORE_LAYER_CHANGE
G92 E0
;0.25


G1 E-.8 F2100
;AFTER_LAYER_CHANGE
;0.25
;_SET_FAN_SPEED_CHANGING_LAYER
G1 Z.4 F9000
G1 X124.121 Y124.121
G1 Z.4
G1 Z.25
G1 E.8 F2100
M204 S500
;TYPE:Skirt
;WIDTH:0.5
G1 F3000
G1 X133.862 Y114.379 E.62635
G1 X135.254 Y113.545 E.07375
G1 X136.223 Y113.401 E.04457
G1 X163.777 Y113.401 E1.2527
G1 X165.35 Y113.795 E.07375
G1 X166.138 Y114.379 E.04457
G1 X185.621 Y133.862 E1.2527
G1 X186.455 Y135.254 E.07375
G1 X186.599 Y136.223 E.04457
G1 X186.599 Y163.777 E1.2527
G1 X186.205 Y165.35 E.07375
G1 X185.621 Y166.138 E.04457
G1 X166.138 Y185.621 E1.2527
G1 X164.746 Y186.455 E.07375
G1 X163.777 Y186.599 E.04457
G1 X136.223 Y186.599 E1.2527
G1 X134.65 Y186.205 E.07375
G1 X133.862 Y185.621 E.04457
G1 X114.379 Y166.138 E1.2527
G1 X113.545 Y164.746 E.07375
G1 X113.401 Y163.777 E.04457
G1 X113.401 Y136.223 E1.2527
G1 X113.795 Y134.65 E.07375
G1 X114.379 Y133.862 E.04457
G1 X124.093 Y124.149 E.62453
G1 X124.408 Y124.465 F9000
G1 F3000
G1 X134.178 Y114.695 E.62817
G1 X136.223 Y113.848 E.10066
G1 X163.777 Y113.848 E1.2527
G1 X165.822 Y114.695 E.10066
G1 X185.305 Y134.178 E1.2527
G1 X186.152 Y136.223 E.10066
G1 X186.152 Y163.777 E1.2527
G1 X185.305 Y165.822 E.10066
G1 X165.822 Y185.305 E1.2527
G1 X163.777 Y186.152 E.10066
G1 X136.223 Y186.152 E1.2527
G1 X134.178 Y185.305 E.10066
G1 X114.695 Y165.822 E1.2527
G1 X113.848 Y163.777 E.10066
G1 X113.848 Y136.223 E1.2527
G1 X114.695 Y134.178 E.10066
G1 X124.38 Y124.493 E.62271
G1 X124.695 Y124.809 F9000
G1 F3000
G1 X134.494 Y115.011 E.62999
G1 X136.223 Y114.294 E.08513
G1 X163.777 Y114.294 E1.2527
G1 X165.506 Y115.011 E.08513
G1 X184.989 Y134.494 E1.2527
G1 X185.706 Y136.223 E.08513
G1 X185.706 Y163.777 E1.2527
G1 X184.989 Y165.506 E.08513
G1 X165.506 Y184.989 E1.2527
G1 X163.777 Y185.706 E.08513
G1 X136.223 Y185.706 E1.2527
G1 X134.494 Y184.989 E.08513
G1 X115.011 Y165.506 E1.2527
G1 X114.294 Y163.777 E.08513
G1 X114.294 Y136.223 E1.2527
G1 X115.011 Y134.494 E.08513
M73 P0 R95
G1 X124.667 Y124.837 E.62089
; printing object VapeHolder.stl id:0 copy 0
G1 E-.8 F2100
G1 Z.65 F9000
G1 X162.934 Y181.224 Z.65
G1 Z.25
G1 E.8 F2100
;TYPE:Inner wall
;WIDTH:0.499999
G1 F2700
G1 X137.066 Y181.224 E1.17604
G1 X118.776 Y162.934 E1.17604
G1 X118.776 Y137.066 E1.17604
G1 X137.066 Y118.776 E1.17604
G1 X162.934 Y118.776 E1.17604
G1 X181.224 Y137.066 E1.17604
G1 X181.224 Y150 E.58802
G1 X181.224 Y162.934 E.58802
G1 X162.962 Y181.196 E1.17422
G1 X163.118 Y181.671 F9000
G1 F2700
G1 X136.882 Y181.671 E1.19285
G1 X118.329 Y163.118 E1.19285
G1 X118.329 Y136.882 E1.19285
G1 X136.882 Y118.329 E1.19285
G1 X163.118 Y118.329 E1.19285
G1 X181.671 Y136.882 E1.19285
G1 X181.671 Y150 E.59642
G1 X181.671 Y163.118 E.59642
G1 X163.147 Y181.642 E1.19103
G1 X163.303 Y182.117 F9000
G1 F2700
G1 X136.697 Y182.117 E1.20966
G1 X117.883 Y163.303 E1.20966
G1 X117.883 Y136.697 E1.20966
G1 X136.697 Y117.883 E1.20966
G1 X163.303 Y117.883 E1.20966
G1 X182.117 Y136.697 E1.20966
G1 X182.117 Y150 E.60483
G1 X182.117 Y163.303 E.60483
G1 X163.332 Y182.089 E1.20784
G1 X163.488 Y182.563 F9000
G1 F2700
G1 X136.512 Y182.563 E1.22647
G1 X117.437 Y163.488 E1.22647
G1 X117.437 Y136.512 E1.22647
G1 X136.512 Y117.437 E1.22647
G1 X163.488 Y117.437 E1.22647
G1 X182.563 Y136.512 E1.22647
G1 X182.563 Y150 E.61324
G1 X182.563 Y163.488 E.61324
G1 X163.516 Y182.535 E1.22465
G1 X163.673 Y183.01 F9000
M204 S700
;TYPE:Outer wall
G1 F2700
G1 X136.327 Y183.01 E1.24328
G1 X116.99 Y163.673 E1.24328
G1 X116.99 Y136.327 E1.24328
G1 X136.327 Y116.99 E1.24328
G1 X163.673 Y116.99 E1.24328
G1 X183.01 Y136.327 E1.24328
G1 X183.01 Y150 E.62164
G1 X183.01 Y163.673 E.62164
G1 X163.701 Y182.981 E1.24146
G1 E-.8 F2100
G1 Z.65 F9000
G1 X181.046 Y137.425 Z.65
G1 Z.25
G1 E.8 F2100
M204 S500
;TYPE:Bottom surface
;WIDTH:0.500672
G1 X162.776 Y119.155 E1.17647
G1 X162.144 Y119.155 E.02879
G1 X180.845 Y137.856 E1.20424
G1 X180.845 Y138.489 E.02879
G1 X161.511 Y119.155 E1.24495
G1 X160.879 Y119.155 E.02879
G1 X180.845 Y139.121 E1.28566
G1 X180.845 Y139.753 E.02879
G1 X160.247 Y119.155 E1.32637
G1 X159.615 Y119.155 E.02879
G1 X180.845 Y140.385 E1.36708
G1 X180.845 Y141.017 E.02879
M73 P1 R95
G1 X158.983 Y119.155 E1.40779
G1 X158.351 Y119.155 E.02879
G1 X180.845 Y141.649 E1.4485
G1 X180.845 Y142.282 E.02879
G1 X157.718 Y119.155 E1.48921
G1 X157.086 Y119.155 E.02879
G1 X180.845 Y142.914 E1.52991
G1 X180.845 Y143.546 E.02879
G1 X156.454 Y119.155 E1.57062
G1 X155.822 Y119.155 E.02879
G1 X180.845 Y144.178 E1.61133
G1 X180.845 Y144.81 E.02879
G1 X155.19 Y119.155 E1.65204
G1 X154.557 Y119.155 E.02879
G1 X180.845 Y145.443 E1.69275
G1 X180.845 Y146.075 E.02879
G1 X153.925 Y119.155 E1.73346
G1 X153.293 Y119.155 E.02879
G1 X180.845 Y146.707 E1.77417
G1 X180.845 Y147.339 E.02879
G1 X152.661 Y119.155 E1.81488
G1 X152.029 Y119.155 E.02879
G1 X180.845 Y147.971 E1.85558
G1 X180.845 Y148.604 E.02879
G1 X151.396 Y119.155 E1.89629
G1 X150.764 Y119.155 E.02879
G1 X180.845 Y149.236 E1.937
G1 X180.845 Y149.868 E.02879
G1 X150.132 Y119.155 E1.97771
G1 X149.5 Y119.155 E.02879
G1 X180.845 Y150.5 E2.01842
G1 X180.845 Y151.132 E.02879
G1 X148.868 Y119.155 E2.05913
G1 X148.236 Y119.155 E.02879
G1 X180.845 Y151.764 E2.09984
G1 X180.845 Y152.397 E.02879
G1 X147.603 Y119.155 E2.14055
G1 X146.971 Y119.155 E.02879
G1 X180.845 Y153.029 E2.18125
G1 X180.845 Y153.661 E.02879
G1 X146.339 Y119.155 E2.22196
G1 X145.707 Y119.155 E.02879
G1 X180.845 Y154.293 E2.26267
G1 X180.845 Y154.925 E.02879
M73 P1 R94
G1 X145.075 Y119.155 E2.30338
G1 X144.442 Y119.155 E.02879
G1 X180.845 Y155.558 E2.34409
G1 X180.845 Y156.19 E.02879
G1 X143.81 Y119.155 E2.3848
G1 X143.178 Y119.155 E.02879
G1 X180.845 Y156.822 E2.42551
G1 X180.845 Y157.454 E.02879
G1 X142.546 Y119.155 E2.46622
G1 X141.914 Y119.155 E.02879
G1 X180.845 Y158.086 E2.50692
G1 X180.845 Y158.718 E.02879
G1 X141.282 Y119.155 E2.54763
G1 X140.649 Y119.155 E.02879
G1 X180.845 Y159.351 E2.58834
G1 X180.845 Y159.983 E.02879
G1 X140.017 Y119.155 E2.62905
G1 X139.385 Y119.155 E.02879
G1 X180.845 Y160.615 E2.66976
G1 X180.845 Y161.247 E.02879
G1 X138.753 Y119.155 E2.71047
G1 X138.121 Y119.155 E.02879
G1 X180.845 Y161.879 E2.75118
G1 X180.845 Y162.512 E.02879
G1 X137.488 Y119.155 E2.79189
G1 X137.224 Y119.155 E.01206
G1 X137.04 Y119.339 E.01183
G1 X180.661 Y162.96 E2.80894
G1 X180.345 Y163.276 E.02035
G1 X136.724 Y119.655 E2.80894
G1 X136.408 Y119.971 E.02035
G1 X180.029 Y163.592 E2.80894
G1 X179.713 Y163.908 E.02035
G1 X136.092 Y120.287 E2.80894
G1 X135.776 Y120.603 E.02035
G1 X179.397 Y164.224 E2.80894
G1 X179.081 Y164.541 E.02035
M73 P2 R94
G1 X135.459 Y120.919 E2.80894
G1 X135.143 Y121.235 E.02035
G1 X178.765 Y164.857 E2.80894
G1 X178.449 Y165.173 E.02035
G1 X134.827 Y121.551 E2.80894
G1 X134.511 Y121.868 E.02035
G1 X178.132 Y165.489 E2.80894
G1 X177.816 Y165.805 E.02035
G1 X134.195 Y122.184 E2.80894
G1 X133.879 Y122.5 E.02035
G1 X177.5 Y166.121 E2.80894
G1 X177.184 Y166.437 E.02035
G1 X133.563 Y122.816 E2.80894
G1 X133.247 Y123.132 E.02035
G1 X176.868 Y166.753 E2.80894
G1 X176.552 Y167.069 E.02035
G1 X132.931 Y123.448 E2.80894
G1 X132.615 Y123.764 E.02035
G1 X176.236 Y167.385 E2.80894
G1 X175.92 Y167.701 E.02035
G1 X132.299 Y124.08 E2.80894
G1 X131.982 Y124.396 E.02035
G1 X175.604 Y168.018 E2.80894
G1 X175.288 Y168.334 E.02035
G1 X131.666 Y124.712 E2.80894
G1 X131.35 Y125.028 E.02035
G1 X174.972 Y168.65 E2.80894
G1 X174.655 Y168.966 E.02035
G1 X131.034 Y125.345 E2.80894
G1 X130.718 Y125.661 E.02035
G1 X174.339 Y169.282 E2.80894
G1 X174.023 Y169.598 E.02035
M73 P2 R93
G1 X130.402 Y125.977 E2.80894
G1 X130.086 Y126.293 E.02035
G1 X173.707 Y169.914 E2.80894
G1 X173.391 Y170.23 E.02035
G1 X129.77 Y126.609 E2.80894
G1 X129.454 Y126.925 E.02035
G1 X173.075 Y170.546 E2.80894
G1 X172.759 Y170.862 E.02035
G1 X129.138 Y127.241 E2.80894
G1 X128.822 Y127.557 E.02035
G1 X172.443 Y171.178 E2.80894
G1 X172.127 Y171.495 E.02035
G1 X128.505 Y127.873 E2.80894
G1 X128.189 Y128.189 E.02035
G1 X171.811 Y171.811 E2.80894
G1 X171.495 Y172.127 E.02035
G1 X127.873 Y128.505 E2.80894
G1 X127.557 Y128.822 E.02035
G1 X171.178 Y172.443 E2.80894
G1 X170.862 Y172.759 E.02035
G1 X127.241 Y129.138 E2.80894
G1 X126.925 Y129.454 E.02035
G1 X170.546 Y173.075 E2.80894
G1 X170.23 Y173.391 E.02035
G1 X126.609 Y129.77 E2.80894
G1 X126.293 Y130.086 E.02035
G1 X169.914 Y173.707 E2.80894
G1 X169.598 Y174.023 E.02035
G1 X125.977 Y130.402 E2.80894
G1 X125.661 Y130.718 E.02035
M73 P3 R93
G1 X169.282 Y174.339 E2.80894
G1 X168.966 Y174.655 E.02035
G1 X125.345 Y131.034 E2.80894
G1 X125.028 Y131.35 E.02035
G1 X168.65 Y174.972 E2.80894
G1 X168.334 Y175.288 E.02035
G1 X124.712 Y131.666 E2.80894
G1 X124.396 Y131.983 E.02035
G1 X168.017 Y175.604 E2.80894
G1 X167.701 Y175.92 E.02035
G1 X124.08 Y132.299 E2.80894
G1 X123.764 Y132.615 E.02035
G1 X167.385 Y176.236 E2.80894
G1 X167.069 Y176.552 E.02035
G1 X123.448 Y132.931 E2.80894
G1 X123.132 Y133.247 E.02035
G1 X166.753 Y176.868 E2.80894
G1 X166.437 Y177.184 E.02035
G1 X122.816 Y133.563 E2.80894
G1 X122.5 Y133.879 E.02035
G1 X166.121 Y177.5 E2.80894
G1 X165.805 Y177.816 E.02035
G1 X122.184 Y134.195 E2.80894
G1 X121.868 Y134.511 E.02035
G1 X165.489 Y178.132 E2.80894
G1 X165.173 Y178.449 E.02035
G1 X121.551 Y134.827 E2.80894
G1 X121.235 Y135.143 E.02035
G1 X164.857 Y178.765 E2.80894
G1 X164.54 Y179.081 E.02035
G1 X120.919 Y135.46 E2.80894
G1 X120.603 Y135.776 E.02035
G1 X164.224 Y179.397 E2.80894
G1 X163.908 Y179.713 E.02035
M73 P3 R92
G1 X120.287 Y136.092 E2.80894
G1 X119.971 Y136.408 E.02035
G1 X163.592 Y180.029 E2.80894
G1 X163.276 Y180.345 E.02035
G1 X119.655 Y136.724 E2.80894
G1 X119.339 Y137.04 E.02035
G1 X162.96 Y180.661 E2.80894
G1 X162.776 Y180.845 E.01183
G1 X162.511 Y180.845 E.01206
G1 X119.155 Y137.489 E2.79188
G1 X119.155 Y138.121 E.02879
G1 X161.879 Y180.845 E2.75117
G1 X161.247 Y180.845 E.02879
G1 X119.155 Y138.753 E2.71046
G1 X119.155 Y139.385 E.02879
G1 X160.615 Y180.845 E2.66975
G1 X159.983 Y180.845 E.02879
G1 X119.155 Y140.017 E2.62904
G1 X119.155 Y140.649 E.02879
G1 X159.351 Y180.845 E2.58834
G1 X158.718 Y180.845 E.02879
G1 X119.155 Y141.282 E2.54763
G1 X119.155 Y141.914 E.02879
G1 X158.086 Y180.845 E2.50692
G1 X157.454 Y180.845 E.02879
G1 X119.155 Y142.546 E2.46621
G1 X119.155 Y143.178 E.02879
G1 X156.822 Y180.845 E2.4255
G1 X156.19 Y180.845 E.02879
G1 X119.155 Y143.81 E2.38479
G1 X119.155 Y144.443 E.02879
M73 P4 R92
G1 X155.557 Y180.845 E2.34408
G1 X154.925 Y180.845 E.02879
G1 X119.155 Y145.075 E2.30337
G1 X119.155 Y145.707 E.02879
G1 X154.293 Y180.845 E2.26267
G1 X153.661 Y180.845 E.02879
G1 X119.155 Y146.339 E2.22196
G1 X119.155 Y146.971 E.02879
G1 X153.029 Y180.845 E2.18125
G1 X152.397 Y180.845 E.02879
G1 X119.155 Y147.603 E2.14054
G1 X119.155 Y148.236 E.02879
G1 X151.764 Y180.845 E2.09983
G1 X151.132 Y180.845 E.02879
G1 X119.155 Y148.868 E2.05912
G1 X119.155 Y149.5 E.02879
G1 X150.5 Y180.845 E2.01841
G1 X149.868 Y180.845 E.02879
G1 X119.155 Y150.132 E1.9777
G1 X119.155 Y150.764 E.02879
G1 X149.236 Y180.845 E1.937
G1 X148.603 Y180.845 E.02879
G1 X119.155 Y151.397 E1.89629
G1 X119.155 Y152.029 E.02879
G1 X147.971 Y180.845 E1.85558
G1 X147.339 Y180.845 E.02879
G1 X119.155 Y152.661 E1.81487
G1 X119.155 Y153.293 E.02879
G1 X146.707 Y180.845 E1.77416
G1 X146.075 Y180.845 E.02879
G1 X119.155 Y153.925 E1.73345
G1 X119.155 Y154.558 E.02879
G1 X145.442 Y180.845 E1.69274
G1 X144.81 Y180.845 E.02879
G1 X119.155 Y155.19 E1.65203
G1 X119.155 Y155.822 E.02879
G1 X144.178 Y180.845 E1.61133
G1 X143.546 Y180.845 E.02879
G1 X119.155 Y156.454 E1.57062
G1 X119.155 Y157.086 E.02879
G1 X142.914 Y180.845 E1.52991
G1 X142.282 Y180.845 E.02879
G1 X119.155 Y157.718 E1.4892
G1 X119.155 Y158.351 E.02879
G1 X141.649 Y180.845 E1.44849
G1 X141.017 Y180.845 E.02879
G1 X119.155 Y158.983 E1.40778
G1 X119.155 Y159.615 E.02879
G1 X140.385 Y180.845 E1.36707
G1 X139.753 Y180.845 E.02879
G1 X119.155 Y160.247 E1.32636
G1 X119.155 Y160.879 E.02879
G1 X139.121 Y180.845 E1.28566
G1 X138.488 Y180.845 E.02879
M73 P4 R91
G1 X119.155 Y161.512 E1.24495
G1 X119.155 Y162.144 E.02879
G1 X137.856 Y180.845 E1.20424
G1 X137.224 Y180.845 E.02879
G1 X118.954 Y162.575 E1.17646
; stop printing object VapeHolder.stl id:0 copy 0
M106 S255
;LAYER_CHANGE
;Z:0.45
;HEIGHT:0.2
;BEFORE_LAYER_CHANGE
G92 E0
;0.45


G1 E-.8 F2100
;AFTER_LAYER_CHANGE
;0.45
;_SET_FAN_SPEED_CHANGING_LAYER
M104 S200 ; set nozzle temperature
; printing object VapeHolder.stl id:0 copy 0
G1 Z.65 F9000
G1 X163.03 Y181.456 Z.65
G1 Z.45
G1 E.8 F2100
;TYPE:Inner wall
;WIDTH:0.449999
G1 F3600
G1 X136.97 Y181.456 E.86443
G1 X118.544 Y163.03 E.86443
G1 X118.544 Y136.97 E.86443
G1 X136.97 Y118.544 E.86443
G1 X163.03 Y118.544 E.86443
G1 X181.456 Y136.97 E.86443
G1 X181.456 Y150 E.43222
G1 X181.456 Y163.03 E.43222
G1 X163.058 Y181.428 E.86311
G1 X163.198 Y181.863 F9000
G1 F3600
G1 X136.802 Y181.863 E.87562
G1 X118.137 Y163.198 E.87562
G1 X118.137 Y136.802 E.87562
G1 X136.802 Y118.137 E.87562
G1 X163.198 Y118.137 E.87562
G1 X181.863 Y136.802 E.87562
G1 X181.863 Y150 E.43781
G1 X181.863 Y163.198 E.43781
G1 X163.227 Y181.835 E.87429
G1 X163.367 Y182.271 F9000
G1 F3600
G1 X136.633 Y182.271 E.88681
G1 X117.729 Y163.367 E.88681
G1 X117.729 Y136.633 E.88681
G1 X136.633 Y117.729 E.88681
G1 X163.367 Y117.729 E.88681
G1 X182.271 Y136.633 E.88681
G1 X182.271 Y150 E.4434
G1 X182.271 Y163.367 E.4434
G1 X163.395 Y182.242 E.88548
G1 X163.535 Y182.678 F9000
G1 F3600
G1 X136.465 Y182.678 E.89799
G1 X117.322 Y163.535 E.89799
G1 X117.322 Y136.465 E.89799
G1 X136.465 Y117.322 E.89799
G1 X163.535 Y117.322 E.89799
G1 X182.678 Y136.465 E.89799
G1 X182.678 Y150 E.449
G1 X182.678 Y163.535 E.449
G1 X163.564 Y182.649 E.89667
G1 X163.694 Y183.06 F9000
M204 S700
;TYPE:Outer wall
;WIDTH:0.399999
G1 F3600
G1 X136.306 Y183.06 E.79691
G1 X116.94 Y163.694 E.79691
G1 X116.94 Y136.306 E.79691
G1 X136.306 Y116.94 E.79691
G1 X163.694 Y116.94 E.79691
G1 X183.06 Y136.306 E.79691
G1 X183.06 Y150 E.39845
G1 X183.06 Y163.694 E.39845
G1 X163.722 Y183.031 E.79574
M73 P5 R91
G1 E-.8 F2100
G1 Z.85 F9000
G1 X162.67 Y181.291 Z.85
G1 Z.45
G1 E.8 F2100
M204 S500
;TYPE:Internal solid infill
;WIDTH:0.500056
G1 F1800
G1 X181.085 Y162.876 E.97012
G1 X181.085 Y162.229 E.02408
G1 X162.229 Y181.085 E.99334
G1 X161.583 Y181.085 E.02408
G1 X181.085 Y161.583 E1.0274
G1 X181.085 Y160.936 E.02408
G1 X160.936 Y181.085 E1.06146
G1 X160.29 Y181.085 E.02408
G1 X181.085 Y160.29 E1.09551
G1 X181.085 Y159.643 E.02408
G1 X159.643 Y181.085 E1.12957
